la/critical-role.svg

<svg xmlns="http://www.w3.org/2000/svg" viewBox="0 0 32 32" height="1em" width="1em">
  <path d="M 16.013672 3.3632812 C 15.476672 3.6592812 6.2944844 8.8979219 5.1464844 9.5449219 C 5.0514844 9.5869219 4.9939531 9.6841094 5.0019531 9.7871094 C 5.0039531 11.128109 5.0039062 22.23825 5.0039062 22.28125 C 4.9989062 22.34825 5.0347031 22.412406 5.0957031 22.441406 C 5.1027031 22.445406 11.960953 26.384672 15.876953 28.638672 L 16.025391 28.638672 C 16.571391 28.327672 25.777031 23.080281 26.832031 22.488281 C 26.942031 22.437281 27.007047 22.324125 26.998047 22.203125 C 26.994047 18.083125 26.994047 13.96275 26.998047 9.84375 C 26.998047 9.69075 26.964406 9.5775312 26.816406 9.5195312 C 26.789406 9.5085312 16.111609 3.3702813 16.099609 3.3632812 L 16.013672 3.3632812 z M 16.355469 4.2734375 C 19.585469 6.1294375 22.80225 7.9750781 26.03125 9.8300781 C 25.66325 9.9740781 20.952266 11.744141 20.947266 11.744141 C 20.911266 11.757141 20.898063 11.775453 20.914062 11.814453 C 20.951063 11.905453 20.986578 11.997797 21.017578 12.091797 C 21.034578 12.144797 21.058328 12.155766 21.111328 12.134766 C 21.233328 12.086766 26.247031 10.200781 26.332031 10.175781 L 26.332031 21.550781 C 26.329031 21.547781 22.874672 15.557594 22.513672 14.933594 C 22.460672 14.842594 22.458375 14.842328 22.359375 14.861328 C 22.009375 14.930328 22.141297 14.898641 22.029297 14.931641 C 23.362297 17.243641 24.699063 19.560813 26.039062 21.882812 L 16.822266 21.882812 C 16.762266 21.882812 16.728469 21.877734 16.730469 21.802734 C 16.730469 21.797734 16.6875 20.483516 16.6875 20.478516 C 16.6885 20.422516 16.666281 20.405109 16.613281 20.412109 C 16.228281 20.481109 15.835219 20.486734 15.449219 20.427734 C 15.395219 20.418734 15.380859 20.441234 15.380859 20.490234 L 15.380859 21.035156 C 15.380859 21.071156 15.374078 21.097797 15.330078 21.091797 C 14.482078 20.967797 14.652969 21.100938 13.292969 19.460938 C 13.158969 19.302938 13.040109 19.134609 12.912109 18.974609 C 12.909109 18.972609 12.906297 18.969797 12.904297 18.966797 C 12.878297 18.935797 12.882109 18.891234 12.912109 18.865234 C 13.331109 18.359234 13.695344 17.975859 13.652344 17.255859 C 13.626344 16.815859 13.415203 16.476047 13.033203 16.248047 C 12.541203 15.955047 11.929578 16.009766 10.267578 16.009766 C 10.081578 16.009766 10.037688 16.199047 10.179688 16.248047 C 10.236687 16.267047 10.352109 16.263391 10.412109 16.275391 C 10.660109 16.323391 10.677734 16.409359 10.677734 16.943359 C 10.681734 20.419359 10.687047 20.189281 10.623047 20.863281 C 10.598047 21.122281 10.456922 21.044031 10.294922 21.082031 C 10.247922 21.089031 10.208312 21.123922 10.195312 21.169922 C 10.178312 21.233922 10.215297 21.299406 10.279297 21.316406 C 10.381297 21.346406 11.863406 21.341266 11.941406 21.322266 C 12.107406 21.280266 12.071016 21.091125 11.916016 21.078125 C 11.545016 21.048125 11.4635 21.057797 11.4375 20.841797 C 11.3955 20.476797 11.402672 20.524469 11.388672 19.230469 C 11.387672 19.140469 11.390562 19.140625 11.476562 19.140625 C 12.133563 19.140625 12.189734 19.105812 12.302734 19.257812 C 12.659734 19.740813 13.018812 20.222219 13.382812 20.699219 C 13.739812 21.167219 14.0695 21.323172 14.4375 21.326172 C 15.4605 21.335172 15.34375 21.309 15.34375 21.375 L 15.34375 21.8125 C 15.34275 21.8825 15.330766 21.894531 15.259766 21.894531 L 6.0546875 21.894531 C 5.9626875 21.894531 5.9521875 21.906891 5.9921875 21.837891 C 7.5261875 19.174891 7.2892656 19.585453 9.3222656 16.064453 C 9.3562656 16.005453 9.3522031 15.998141 9.2832031 15.994141 C 8.9812031 15.974141 8.9139844 15.931313 8.8339844 16.070312 C 8.8309844 16.074312 5.7109688 21.478828 5.6679688 21.548828 L 5.6679688 10.173828 C 5.7979688 10.209828 6.9852344 10.667969 6.9902344 10.667969 C 7.1052344 10.710969 7.1365781 10.710062 7.5175781 10.414062 L 5.9941406 9.8398438 C 5.9921406 9.8338437 5.9882812 9.8282656 5.9882812 9.8222656 C 9.1822813 8.0022656 12.376266 6.1832813 15.572266 4.3632812 L 15.583984 4.3710938 L 15.580078 4.3730469 C 14.167078 6.8170469 12.749172 9.2685156 11.326172 11.728516 C 11.493172 11.728516 11.638203 11.732609 11.783203 11.724609 C 11.872203 11.718609 15.549047 5.2259531 15.998047 4.5019531 C 16.418047 5.2159531 19.997875 11.436531 20.046875 11.519531 C 20.112875 11.634531 20.156906 11.668891 20.628906 11.712891 L 20.642578 11.697266 L 16.355469 4.2734375 z M 15.927734 7.6289062 C 15.551445 7.6699121 15.208125 7.9728125 15.21875 8.4296875 C 15.22575 8.7416875 15.38025 8.9712344 15.65625 9.1152344 C 15.71025 9.1382344 15.743328 9.1949063 15.736328 9.2539062 C 15.716328 9.5979062 15.7215 9.3558906 15.6875 10.712891 C 15.6855 10.799891 15.682656 10.802734 15.597656 10.802734 C 14.090656 10.791734 14.035766 10.811031 13.759766 10.707031 C 13.661766 10.670031 13.609844 10.696781 13.589844 10.800781 C 13.533844 11.097781 13.479734 11.393453 13.427734 11.689453 C 13.418734 11.743453 13.502094 11.982734 13.621094 11.677734 C 13.792094 11.239734 14.010422 11.283812 15.607422 11.257812 C 15.643422 11.257812 15.675828 11.261453 15.673828 11.314453 C 15.638828 12.017453 15.495234 17.026688 15.490234 17.304688 C 15.496234 17.367687 15.454578 17.424547 15.392578 17.435547 C 14.818578 17.618547 14.180156 18.281422 14.410156 19.232422 C 14.700156 20.433422 15.959703 20.386859 16.095703 20.380859 C 17.548703 20.313859 17.756547 19.128875 17.685547 18.546875 C 17.634547 18.128875 17.433266 17.80775 17.072266 17.59375 C 16.933266 17.51875 16.789578 17.452531 16.642578 17.394531 C 16.608578 17.378531 16.582031 17.362359 16.582031 17.318359 C 16.582031 17.312359 16.398438 11.297016 16.398438 11.291016 C 16.398438 11.256016 16.412266 11.244141 16.447266 11.244141 C 18.685266 11.359141 18.131906 11.359891 18.378906 11.837891 C 18.413906 11.906891 18.462812 11.913703 18.507812 11.845703 C 18.552813 11.777703 18.548828 10.842891 18.548828 10.837891 C 18.545828 10.752891 18.504875 10.727187 18.421875 10.742188 C 18.331875 10.763188 18.240437 10.776203 18.148438 10.783203 L 18.150391 10.787109 C 17.583391 10.801109 16.454219 10.806641 16.449219 10.806641 C 16.409219 10.806641 16.388672 10.795953 16.388672 10.751953 C 16.334672 9.0559531 16.339844 9.2965781 16.339844 9.2675781 C 16.329844 9.1805781 16.372219 9.0966875 16.449219 9.0546875 C 16.856219 8.7956875 16.908313 8.2163281 16.570312 7.8613281 C 16.391438 7.6730781 16.153508 7.6043027 15.927734 7.6289062 z M 16 8.0429688 C 16.496 8.0439687 16.473094 8.7833438 15.996094 8.7773438 C 15.519094 8.7713437 15.515 8.0449219 16 8.0449219 L 16 8.0429688 z M 9.0019531 10.261719 C 8.7895625 10.273062 8.5650625 10.301672 8.3203125 10.357422 C 6.8483125 10.691422 6.2009375 12.051125 6.3359375 13.328125 C 6.6639375 16.494125 10.867359 15.857297 10.943359 15.404297 C 10.944359 15.394297 11.023281 14.994984 11.113281 14.458984 C 11.117281 14.441984 11.117234 14.425203 11.115234 14.408203 C 11.105234 14.335203 11.037844 14.282969 10.964844 14.292969 C 10.676844 14.305969 11.083281 15.203734 9.7382812 15.302734 C 7.9072813 15.437734 7.0533594 13.972016 7.0683594 12.791016 C 7.1063594 9.9230156 10.598906 10.430109 10.753906 11.537109 C 10.772906 11.677109 10.749219 11.980484 10.949219 11.896484 C 10.996219 11.876484 11.027297 11.83225 11.029297 11.78125 C 11.033297 11.74025 11.081797 10.885672 11.091797 10.638672 C 11.097797 10.501672 11.048109 10.456406 10.912109 10.441406 C 10.178609 10.358156 9.639125 10.227688 9.0019531 10.261719 z M 22.316406 11.8125 C 22.293656 11.8165 22.272312 11.829109 22.257812 11.849609 C 22.190812 11.920609 22.244656 11.824297 21.347656 13.904297 C 21.282656 14.057297 21.218531 14.205516 21.144531 14.353516 C 21.089531 14.463516 20.976516 14.529438 20.853516 14.523438 C 20.737516 14.526438 20.746625 14.681641 20.890625 14.681641 L 22.191406 14.681641 C 22.382406 14.681641 22.306203 14.526047 22.158203 14.498047 C 21.944203 14.456047 21.493641 14.549625 21.556641 14.390625 C 21.627641 14.207625 21.701297 14.026656 21.779297 13.847656 C 21.796297 13.819656 21.826375 13.800875 21.859375 13.796875 C 22.099375 13.783875 22.340078 13.780969 22.580078 13.792969 C 22.626078 13.789969 22.667687 13.819281 22.679688 13.863281 C 22.745687 14.031281 22.811812 14.201187 22.882812 14.367188 C 22.974813 14.582188 22.775391 14.612578 22.900391 14.642578 C 22.958391 14.660578 23.019078 14.673687 23.080078 14.679688 C 23.223078 14.683688 22.545984 14.672359 25.583984 14.693359 C 25.853984 14.695359 25.785703 14.535594 25.845703 14.183594 L 25.841797 14.181641 C 25.861797 14.066641 25.73825 13.906406 25.65625 14.191406 C 25.60325 14.381406 25.521187 14.380375 24.867188 14.359375 C 24.792187 14.365375 24.722031 14.312281 24.707031 14.238281 C 24.684031 14.124281 24.690359 12.285078 24.693359 12.205078 C 24.692359 12.199078 24.693359 12.191547 24.693359 12.185547 C 24.696359 12.115547 24.754219 12.061453 24.824219 12.064453 C 25.147219 12.030453 24.999766 11.894531 24.884766 11.894531 C 23.769766 11.889531 23.824453 11.892344 23.814453 11.902344 C 23.692453 12.022344 23.805359 12.052734 23.818359 12.052734 C 23.976359 12.078734 24.091797 12.043672 24.091797 12.263672 C 24.092797 14.357672 24.093844 14.208781 24.089844 14.300781 C 24.082844 14.457781 24.062766 14.517719 23.884766 14.511719 C 23.853766 14.511719 23.669313 14.545109 23.570312 14.412109 C 23.312313 14.056109 22.549297 12.014609 22.404297 11.849609 C 22.398297 11.841609 22.391813 11.834125 22.382812 11.828125 C 22.362312 11.813625 22.339156 11.8085 22.316406 11.8125 z M 19.824219 11.84375 C 19.403219 11.8405 18.911906 11.928391 18.566406 12.275391 C 18.080406 12.762391 17.86925 13.961672 18.90625 14.513672 C 19.56225 14.862672 20.440531 14.689687 20.519531 14.679688 C 20.843531 14.637687 20.814453 14.055781 20.814453 14.050781 C 20.771453 13.905781 20.721156 13.932094 20.660156 13.996094 C 20.609156 14.049094 20.612313 14.280094 20.320312 14.371094 C 19.981312 14.477094 19.184531 14.452406 18.894531 13.691406 C 18.615531 12.962406 18.939328 11.817219 20.236328 12.199219 C 20.459328 12.265219 20.590375 12.413391 20.609375 12.650391 C 20.619375 12.768391 20.742391 12.774062 20.775391 12.664062 C 20.785391 12.630063 20.786734 12.447547 20.802734 12.185547 C 20.811734 12.042547 20.77725 11.985078 20.65625 11.955078 L 20.654297 11.955078 C 20.594797 11.940078 20.245219 11.847 19.824219 11.84375 z M 15.050781 11.900391 L 14.109375 11.904297 C 13.946375 11.958297 13.947578 12.053313 14.142578 12.070312 C 14.284578 12.082312 14.302734 12.12725 14.302734 12.40625 C 14.293734 14.64225 14.294297 14.241156 14.279297 14.410156 C 14.277297 14.469156 14.228922 14.516625 14.169922 14.515625 C 13.985922 14.533625 13.812641 14.496375 13.681641 14.359375 C 13.169641 13.823375 12.875125 13.445672 12.828125 13.388672 C 12.934125 13.274672 13.033812 13.167641 13.132812 13.056641 C 13.566812 12.562641 13.173234 11.992453 12.740234 11.939453 C 12.374234 11.894453 11.841812 11.899297 11.257812 11.904297 C 11.158812 11.905297 10.9665 12.034313 11.3125 12.070312 C 11.4505 12.084312 11.476562 12.145453 11.476562 12.314453 C 11.475562 12.417453 11.462797 13.023922 11.466797 14.294922 C 11.468797 14.642922 11.294734 14.412656 11.177734 14.597656 C 11.194734 14.653656 11.249594 14.690547 11.308594 14.685547 L 12.269531 14.685547 C 12.456038 14.683101 12.456357 14.506767 12.224609 14.511719 C 12.027609 14.517719 12.070344 14.453625 12.027344 13.640625 C 12.022344 13.542625 12.352641 13.550203 12.431641 13.658203 C 12.961641 14.380203 13.099953 14.685547 13.626953 14.685547 C 14.138953 14.682547 14.650109 14.687594 15.162109 14.683594 C 15.353109 14.681594 15.285109 14.515625 15.162109 14.515625 C 14.923109 14.519625 14.915156 14.449203 14.910156 14.408203 C 14.893156 14.280203 14.877625 14.463922 14.890625 12.294922 C 14.893625 12.115922 14.909891 12.079406 15.087891 12.066406 C 15.091891 12.066406 15.099609 12.068406 15.099609 12.066406 C 15.272609 11.925406 15.066781 11.900391 15.050781 11.900391 z M 16.876953 11.904297 C 16.789953 11.906297 16.730422 11.997594 16.857422 12.058594 C 16.929422 12.092594 17.089844 12.016578 17.089844 12.267578 C 17.081844 14.594578 17.143875 14.515625 16.921875 14.515625 C 16.754875 14.516625 16.731875 14.681641 16.921875 14.681641 C 17.312875 14.684641 17.668281 14.685547 17.988281 14.685547 C 18.116281 14.684547 18.121188 14.520625 17.992188 14.515625 C 17.837188 14.509625 17.698313 14.540844 17.695312 14.339844 L 17.693359 14.339844 C 17.656359 12.257844 17.695312 12.187734 17.695312 12.177734 C 17.709312 12.041734 17.851391 12.080687 17.900391 12.054688 C 18.013391 11.994687 17.969875 11.945063 17.921875 11.914062 C 17.873875 11.884063 16.940953 11.904297 16.876953 11.904297 z M 12.140625 12.183594 C 12.320016 12.145719 12.689703 12.221219 12.751953 12.636719 C 12.769953 12.752719 12.822391 13.365875 12.150391 13.296875 C 12.063391 13.287875 12.044922 13.258922 12.044922 13.169922 C 12.041922 12.927922 12.044969 12.473953 12.042969 12.251953 C 12.042469 12.222453 12.080828 12.196219 12.140625 12.183594 z M 22.224609 12.703125 L 22.525391 13.484375 L 21.916016 13.484375 C 22.019016 13.224375 22.117609 12.974125 22.224609 12.703125 z M 11.740234 16.376953 C 11.924984 16.380953 12.122375 16.415188 12.171875 16.429688 C 12.918875 16.647688 13.083109 17.633656 12.787109 18.347656 C 12.558109 18.893656 12.091484 18.765031 11.521484 18.707031 C 11.403484 18.697031 11.386719 18.678547 11.386719 18.560547 C 11.386719 17.078547 11.387766 16.901859 11.384766 16.505859 C 11.383266 16.400359 11.555484 16.372953 11.740234 16.376953 z M 22.482422 17.162109 C 22.034422 17.213109 22.419484 17.185359 20.646484 17.193359 C 20.458484 17.194359 20.466781 17.361328 20.675781 17.361328 L 20.679688 17.365234 C 20.869688 17.365234 20.991094 17.123438 20.871094 19.898438 C 20.863094 20.051437 20.721969 20.016391 20.667969 20.025391 C 20.547969 20.047391 20.52225 20.170313 20.65625 20.195312 C 20.68925 20.201313 20.560531 20.206937 22.394531 20.210938 C 22.616531 20.210938 22.623047 20.109797 22.623047 20.091797 C 22.642047 19.932797 22.663547 19.773234 22.685547 19.615234 C 22.701547 19.499234 22.568344 19.470891 22.527344 19.587891 C 22.427344 19.869891 22.537797 19.893141 21.716797 19.869141 C 21.486797 19.862141 21.525391 19.671406 21.525391 19.066406 C 21.525391 18.644406 21.401109 18.727484 22.162109 18.771484 C 22.345109 18.782484 22.287703 18.934203 22.345703 19.033203 C 22.379703 19.092203 22.446656 19.081578 22.472656 19.017578 C 22.492656 18.966578 22.529297 18.465078 22.529297 18.455078 C 22.540297 18.280078 22.401906 18.359188 22.378906 18.367188 C 22.112906 18.459187 21.757516 18.431359 21.603516 18.443359 C 21.523516 18.449359 21.523438 18.450141 21.523438 18.369141 L 21.523438 17.574219 C 21.523437 17.499219 21.525516 17.495047 21.603516 17.498047 C 22.269516 17.529047 22.357953 17.488 22.376953 17.75 C 22.386953 17.886 22.532922 17.864812 22.544922 17.757812 C 22.561922 17.590813 22.58075 17.422859 22.59375 17.255859 C 22.59975 17.174859 22.565422 17.153109 22.482422 17.162109 z M 19.257812 17.191406 C 19.004813 17.190406 18.189188 17.192359 18.117188 17.193359 C 18.001188 17.193359 17.977609 17.332563 18.099609 17.351562 C 18.241609 17.373562 18.367859 17.349156 18.380859 17.535156 C 18.391859 17.691156 18.412281 19.111531 18.363281 19.894531 C 18.354281 20.052531 18.208375 20.009203 18.109375 20.033203 C 18.028375 20.052203 18.035859 20.188219 18.130859 20.199219 L 20.015625 20.208984 C 20.074625 20.208984 20.288484 20.269656 20.271484 19.597656 C 20.271484 19.585656 20.226719 19.433922 20.136719 19.544922 C 19.946719 19.776922 20.293031 19.917422 19.207031 19.857422 C 19.094031 19.851422 19.042109 19.790734 19.037109 19.677734 C 19.008109 19.065734 19.017578 17.729859 19.017578 17.630859 C 19.017578 17.339859 19.136625 17.377328 19.265625 17.361328 C 19.438625 17.340328 19.419812 17.191406 19.257812 17.191406 z M 15.470703 17.675781 C 15.484703 17.774781 15.420016 19.522094 15.416016 19.621094 C 15.398016 20.034094 16.677156 20.241 16.660156 19.75 C 16.659156 19.727 16.607422 17.923359 16.607422 17.818359 L 16.607422 17.816406 L 16.625 17.810547 C 17.231 18.280547 17.134578 19.353328 16.892578 19.736328 C 16.662578 20.111328 16.191109 20.260938 15.787109 20.085938 C 14.757109 19.661937 14.774703 18.042781 15.470703 17.675781 z M 16.818359 22.310547 C 26.335359 22.314547 25.772297 22.303219 25.779297 22.324219 C 25.018297 22.765219 16.874156 27.395906 16.035156 27.878906 C 15.986156 27.911906 15.922047 27.911906 15.873047 27.878906 L 15.869141 27.878906 C 14.997141 27.375906 6.3223125 22.3925 6.1953125 22.3125 L 15.226562 22.3125 C 15.325563 22.3125 15.326172 22.314156 15.326172 22.410156 C 15.290172 23.983156 15.259953 24.658297 15.251953 24.779297 C 15.242953 24.962297 15.275609 25.1455 15.349609 25.3125 C 15.561609 25.8195 15.763703 26.33375 15.970703 26.84375 C 16.020703 26.95675 16.034312 26.932656 16.070312 26.847656 C 16.755312 25.231656 16.709328 25.345859 16.736328 25.255859 C 16.776328 25.131859 16.797734 25.004 16.802734 24.875 C 16.804734 24.585 16.742188 22.393672 16.742188 22.388672 C 16.740187 22.329672 16.758359 22.310547 16.818359 22.310547 z"/>
</svg>

<svg xmlns="http://www.w3.org/2000/svg" viewBox="0 0 32 32" height="1em" width="1em">
  <path d="M16.014 3.363c-.537.296-9.72 5.535-10.868 6.182a.244.244 0 0 0-.144.242c.002 1.341.002 12.451.002 12.494a.163.163 0 0 0 .092.16c.007.004 6.865 3.944 10.781 6.198h.148c.546-.311 9.752-5.559 10.807-6.15a.289.289 0 0 0 .166-.286c-.004-4.12-.004-8.24 0-12.36 0-.152-.034-.265-.182-.323-.027-.011-10.704-6.15-10.716-6.157h-.086zm.341.91 9.676 5.557a1428.9 1428.9 0 0 1-5.084 1.914c-.036.013-.049.031-.033.07.037.091.073.184.104.278.017.053.04.064.093.043.122-.048 5.136-1.934 5.221-1.96v11.376c-.003-.003-3.457-5.993-3.818-6.617-.053-.091-.056-.092-.155-.073-.35.07-.218.038-.33.07 1.333 2.313 2.67 4.63 4.01 6.952h-9.217c-.06 0-.094-.005-.092-.08l-.043-1.324c.002-.056-.02-.074-.074-.067a3.553 3.553 0 0 1-1.164.016c-.054-.01-.068.013-.068.062v.545c0 .036-.007.063-.05.057-.849-.124-.678.009-2.038-1.631-.134-.158-.253-.326-.38-.486a.072.072 0 0 1 0-.11c.418-.506.782-.89.74-1.61a1.203 1.203 0 0 0-.62-1.007c-.492-.293-1.103-.238-2.765-.238-.186 0-.23.189-.088.238.057.019.172.015.232.027.248.048.266.134.266.668.004 3.476.009 3.246-.055 3.92-.025.26-.166.181-.328.219a.123.123 0 0 0-.1.088c-.017.064.02.13.084.146.102.03 1.584.025 1.662.006.166-.042.13-.23-.025-.244-.371-.03-.453-.02-.479-.236-.041-.365-.034-.318-.048-1.612-.001-.09.002-.09.088-.09.657 0 .713-.034.826.118.357.483.716.964 1.08 1.441.357.468.687.624 1.055.627 1.022.01.906-.017.906.049v.438c-.001.07-.013.082-.084.082H6.055c-.092 0-.103.012-.063-.057 1.534-2.663 1.297-2.253 3.33-5.774.034-.059.03-.066-.039-.07-.302-.02-.369-.063-.449.076-.003.004-3.123 5.409-3.166 5.479V10.174c.13.036 1.317.494 1.322.494.115.043.147.042.528-.254L5.994 9.84c-.002-.006-.006-.012-.006-.018l9.584-5.459.012.008-.004.002c-1.413 2.444-2.83 4.896-4.254 7.356.167 0 .312.004.457-.004.09-.006 3.766-6.499 4.215-7.223.42.714 4 6.935 4.049 7.018.066.115.11.149.582.193l.014-.016-4.288-7.424zm-.427 3.356a.78.78 0 0 0-.71.8c.008.313.162.542.438.686.054.023.087.08.08.139-.02.344-.014.102-.049 1.459-.002.087-.004.09-.09.09-1.506-.011-1.561.008-1.837-.096-.098-.037-.15-.01-.17.094-.056.297-.11.592-.162.888-.01.054.074.294.193-.011.171-.438.39-.394 1.986-.42.036 0 .069.003.067.056-.035.703-.179 5.713-.184 5.99a.12.12 0 0 1-.097.132c-.574.183-1.213.845-.983 1.796.29 1.201 1.55 1.155 1.686 1.149 1.453-.067 1.66-1.252 1.59-1.834a1.223 1.223 0 0 0-.614-.953 3.983 3.983 0 0 0-.43-.2c-.033-.015-.06-.032-.06-.076l-.184-6.027c0-.035.014-.047.05-.047 2.237.115 1.684.116 1.93.594.036.069.085.076.13.008s.04-1.003.04-1.008c-.002-.085-.043-.11-.126-.096-.09.021-.182.034-.274.041l.002.004c-.567.014-1.696.02-1.7.02-.04 0-.061-.011-.061-.055-.054-1.696-.05-1.455-.05-1.484a.213.213 0 0 1 .11-.213c.407-.26.46-.839.121-1.194a.76.76 0 0 0-.642-.232zm.072.414c.496.001.473.74-.004.734-.477-.006-.481-.732.004-.732v-.002zm-6.998 2.219a4.05 4.05 0 0 0-.682.095c-1.472.334-2.12 1.694-1.984 2.971.328 3.166 4.531 2.53 4.607 2.076.001-.01.08-.409.17-.945a.145.145 0 0 0 .002-.05.134.134 0 0 0-.15-.116c-.288.013.118.91-1.227 1.01-1.83.135-2.685-1.331-2.67-2.512.038-2.868 3.53-2.36 3.686-1.254.019.14-.005.443.195.36a.13.13 0 0 0 .08-.116c.004-.04.053-.895.063-1.142.006-.137-.044-.183-.18-.198-.733-.083-1.273-.213-1.91-.18zm13.314 1.55a.09.09 0 0 0-.058.038c-.067.07-.013-.026-.91 2.054-.065.153-.13.302-.203.45a.307.307 0 0 1-.291.17c-.116.002-.107.158.037.158h1.3c.191 0 .115-.156-.033-.184-.214-.042-.664.052-.601-.107.07-.183.144-.364.222-.543a.11.11 0 0 1 .08-.051c.24-.013.481-.016.721-.004a.096.096 0 0 1 .1.07c.066.168.132.338.203.504.092.215-.108.246.017.276a.91.91 0 0 0 .18.037c.143.004-.534-.008 2.504.013.27.002.202-.157.262-.51l-.004-.001c.02-.115-.104-.276-.186.01-.053.19-.135.188-.789.167a.153.153 0 0 1-.16-.12c-.023-.115-.017-1.954-.014-2.034v-.02a.126.126 0 0 1 .131-.12c.323-.035.176-.17.06-.17-1.114-.005-1.06-.003-1.07.007-.122.12-.009.15.004.15.158.027.274-.008.274.212 0 2.094.002 1.945-.002 2.037-.007.157-.027.217-.205.21-.031 0-.216.034-.315-.099-.258-.356-1.02-2.397-1.166-2.562a.088.088 0 0 0-.021-.022.087.087 0 0 0-.067-.015zm-2.492.032c-.42-.003-.912.084-1.258.431-.486.487-.697 1.687.34 2.239.656.349 1.535.176 1.614.166.324-.042.294-.624.294-.63-.043-.144-.093-.118-.154-.054-.05.053-.048.284-.34.375-.339.106-1.135.081-1.425-.68-.28-.729.044-1.874 1.341-1.492.223.066.354.214.373.451.01.118.133.124.166.014.01-.034.012-.216.028-.478.009-.143-.026-.2-.147-.23h-.002a3.449 3.449 0 0 0-.83-.112zm-4.773.056-.942.004c-.163.054-.161.15.034.166.142.012.16.057.16.336-.01 2.236-.009 1.835-.024 2.004a.109.109 0 0 1-.11.106c-.183.018-.356-.02-.487-.157-.512-.536-.807-.913-.854-.97.106-.114.206-.221.305-.332.434-.494.04-1.065-.393-1.118-.366-.045-.898-.04-1.482-.035-.1.001-.291.13.055.166.137.014.164.075.164.244-.001.103-.014.71-.01 1.98.002.349-.172.119-.29.304a.126.126 0 0 0 .132.088h.96c.187-.003.187-.18-.044-.174-.197.006-.155-.058-.198-.871-.005-.098.326-.09.405.017.53.722.668 1.028 1.195 1.028.512-.003 1.023.002 1.535-.002.191-.002.123-.168 0-.168-.239.004-.247-.067-.252-.108-.017-.128-.032.056-.02-2.113.004-.18.02-.216.198-.229.004 0 .012.002.012 0 .173-.14-.033-.166-.05-.166zm1.826.004c-.087.002-.147.094-.02.155.072.034.233-.042.233.209-.008 2.327.054 2.248-.168 2.248-.167 0-.19.166 0 .166.39.003.746.004 1.066.004.128-.001.133-.165.004-.17-.155-.006-.294.025-.297-.176h-.002c-.037-2.082.002-2.152.002-2.162.014-.136.156-.097.205-.123.113-.06.07-.11.022-.14-.048-.03-.981-.01-1.045-.01zm-4.736.28a.516.516 0 0 1 .611.453c.018.116.07.729-.602.66-.087-.01-.105-.038-.105-.127-.003-.242 0-.696-.002-.918 0-.03.038-.056.098-.068zm10.084.52.3.78h-.609l.309-.78zM11.74 16.376c.185.004.382.038.432.053.747.218.911 1.204.615 1.918-.229.546-.696.417-1.266.359-.118-.01-.134-.028-.134-.146 0-1.482 0-1.66-.002-2.055-.002-.106.17-.133.355-.129zm10.742.785c-.448.051-.063.023-1.836.031-.188.001-.18.168.03.168l.004.004c.19 0 .311-.242.191 2.533-.008.153-.149.118-.203.127-.12.022-.146.145-.012.17.033.006-.095.012 1.739.016.222 0 .228-.101.228-.12.019-.158.04-.318.063-.476.016-.116-.118-.144-.159-.027-.1.282.01.305-.81.281-.23-.007-.192-.198-.192-.803 0-.422-.124-.339.637-.295.183.011.126.163.184.262.034.06.1.049.127-.015.02-.051.056-.553.056-.563.011-.175-.127-.096-.15-.088-.266.092-.621.064-.775.076-.08.006-.08.007-.08-.074v-.795c0-.075.002-.079.08-.076.666.031.754-.01.773.252.01.136.156.115.168.008.017-.167.036-.335.049-.502.006-.081-.029-.103-.112-.094zm-3.224.03c-.253-.002-1.069 0-1.14.001-.117 0-.14.14-.018.159.142.022.268-.003.28.183.012.156.032 1.577-.017 2.36-.009.158-.155.114-.254.138-.08.02-.073.155.022.166l1.885.01c.059 0 .272.06.255-.611 0-.012-.044-.164-.134-.053-.19.232.156.372-.93.312-.113-.006-.165-.066-.17-.18-.029-.611-.02-1.947-.02-2.046 0-.291.12-.254.249-.27.173-.02.154-.17-.008-.17zm-3.787.484c.014.099-.051 1.846-.055 1.945-.018.413 1.261.62 1.244.129 0-.023-.053-1.827-.053-1.932v-.002l.018-.005c.606.47.51 1.542.268 1.925a.885.885 0 0 1-1.106.35c-1.03-.424-1.012-2.043-.316-2.41zm1.347 4.635c9.517.004 8.954-.008 8.961.013-.76.441-8.905 5.072-9.744 5.555a.145.145 0 0 1-.162 0h-.004c-.872-.503-9.547-5.487-9.674-5.567h9.032c.099 0 .1.002.1.098a84.53 84.53 0 0 1-.075 2.37c-.009.182.024.365.098.532.212.508.414 1.022.62 1.532.05.113.064.089.1.004.685-1.616.64-1.502.666-1.592.04-.124.062-.252.067-.381.002-.29-.06-2.481-.06-2.486-.003-.06.015-.078.075-.078z"/>
</svg>
